nuxtjs.org/static/img/home/discover/dx/auto-inject.svg

<svg width="75" height="76" fill="none" xmlns="http://www.w3.org/2000/svg"><mask id="a" maskUnits="userSpaceOnUse" x="0" y="5" width="75" height="69"><path d="M1.91487 46.6651L13.497 66.8046v-.0247c1.2621 2.1807 3.0726 3.9914 5.2508 5.2516 2.1782 1.2601 4.6479 1.9257 7.1627 1.9302h23.179c2.5149-.004 4.9848-.6694 7.1631-1.9296s3.9887-3.0712 5.2505-5.2522l11.582-20.1148C74.3397 44.4796 75 42.0023 75 39.4808c0-2.5215-.6603-4.9988-1.9149-7.1842l-11.582-20.1148c-1.2631-2.18321-3.0758-3.99561-5.2569-5.25595C54.0651 5.6655 51.5922 5.00141 49.0747 5H25.9105c-2.5148.0045-4.9845.67002-7.1627 1.93019-2.1782 1.26016-3.9887 3.07091-5.2508 5.25161L1.91487 32.2966C.660299 34.482 0 36.9593 0 39.4808c0 2.5215.660299 4.9988 1.91487 7.1843z" fill="#00DC82"/></mask><g mask="url(#a)"><path d="M1.91487 46.6651L13.497 66.8046v-.0247c1.2621 2.1807 3.0726 3.9914 5.2508 5.2516 2.1782 1.2601 4.6479 1.9257 7.1627 1.9302h23.179c2.5149-.004 4.9848-.6694 7.1631-1.9296s3.9887-3.0712 5.2505-5.2522l11.582-20.1148C74.3397 44.4796 75 42.0023 75 39.4808c0-2.5215-.6603-4.9988-1.9149-7.1842l-11.582-20.1148c-1.2631-2.18321-3.0758-3.99561-5.2569-5.25595C54.0651 5.6655 51.5922 5.00141 49.0747 5H25.9105c-2.5148.0045-4.9845.67002-7.1627 1.93019-2.1782 1.26016-3.9887 3.07091-5.2508 5.25161L1.91487 32.2966C.660299 34.482 0 36.9593 0 39.4808c0 2.5215.660299 4.9988 1.91487 7.1843z" fill="#00DC82"/><path opacity=".3" d="M-8.08513 46.6668L3.49695 66.8063v-.0247c1.26216 2.1807 3.07265 3.9914 5.25083 5.2516 2.17822 1.2601 4.64792 1.9257 7.16272 1.9302h23.179c2.5149-.004 4.9848-.6694 7.1631-1.9296s3.9887-3.0712 5.2505-5.2522l11.582-20.1148C64.3397 44.4813 65 42.004 65 39.4825c0-2.5215-.6603-4.9988-1.9149-7.1842l-11.582-20.1148c-1.2631-2.1832-3.0758-3.9956-5.2569-5.25594-2.1811-1.26035-4.654-1.92444-7.1715-1.92585H15.9105c-2.5148.00449-4.9845.67002-7.16272 1.93019-2.17818 1.26016-3.98867 3.0709-5.25083 5.2516L-8.08513 32.2983C-9.3397 34.4837-10 36.961-10 39.4825c0 2.5215.6603 4.9988 1.91487 7.1843z" fill="#fff"/></g><path d="M48.4688 27h-16.875c-1.3975 0-2.5313 1.1338-2.5313 2.5312v2.5313h-2.5313c-1.3974 0-2.5312 1.1338-2.5312 2.5313v16.875C24 52.8662 25.1338 54 26.5312 54h16.875c1.3975 0 2.5313-1.1338 2.5313-2.5312v-2.5313h2.5313c1.3974 0 2.5312-1.1338 2.5312-2.5313v-16.875C51 28.1338 49.8662 27 48.4688 27zm-5.0626 24.4688h-16.875V40.5h16.875v10.9688zm5.0626-5.0626h-2.5313V34.5938c0-1.3975-1.1338-2.5313-2.5313-2.5313H31.5938v-2.5313h16.875v16.875z" fill="#B9FFE2"/></svg>

<svg width="75" height="76" viewBox="0 0 75 76" fill="none" xmlns="http://www.w3.org/2000/svg">
<mask id="mask0" mask-type="alpha" maskUnits="userSpaceOnUse" x="0" y="5" width="75" height="69">
<path d="M1.91487 46.6651L13.497 66.8046V66.7799C14.7591 68.9606 16.5696 70.7713 18.7478 72.0315C20.926 73.2916 23.3957 73.9572 25.9105 73.9617H49.0895C51.6044 73.9577 54.0743 73.2923 56.2526 72.0321C58.4309 70.7719 60.2413 68.9609 61.5031 66.7799L73.0851 46.6651C74.3397 44.4796 75 42.0023 75 39.4808C75 36.9593 74.3397 34.482 73.0851 32.2966L61.5031 12.1818C60.24 9.99859 58.4273 8.18619 56.2462 6.92585C54.0651 5.6655 51.5922 5.00141 49.0747 5H25.9105C23.3957 5.0045 20.926 5.67002 18.7478 6.93019C16.5696 8.19035 14.7591 10.0011 13.497 12.1818L1.91487 32.2966C0.660299 34.482 0 36.9593 0 39.4808C0 42.0023 0.660299 44.4796 1.91487 46.6651Z" fill="#00DC82"/>
</mask>
<g mask="url(#mask0)">
<path d="M1.91487 46.6651L13.497 66.8046V66.7799C14.7591 68.9606 16.5696 70.7713 18.7478 72.0315C20.926 73.2916 23.3957 73.9572 25.9105 73.9617H49.0895C51.6044 73.9577 54.0743 73.2923 56.2526 72.0321C58.4309 70.7719 60.2413 68.9609 61.5031 66.7799L73.0851 46.6651C74.3397 44.4796 75 42.0023 75 39.4808C75 36.9593 74.3397 34.482 73.0851 32.2966L61.5031 12.1818C60.24 9.99859 58.4273 8.18619 56.2462 6.92585C54.0651 5.6655 51.5922 5.00141 49.0747 5H25.9105C23.3957 5.0045 20.926 5.67002 18.7478 6.93019C16.5696 8.19035 14.7591 10.0011 13.497 12.1818L1.91487 32.2966C0.660299 34.482 0 36.9593 0 39.4808C0 42.0023 0.660299 44.4796 1.91487 46.6651Z" fill="#00DC82"/>
<path opacity="0.3" d="M-8.08513 46.6668L3.49695 66.8063V66.7816C4.75911 68.9623 6.5696 70.773 8.74778 72.0332C10.926 73.2933 13.3957 73.9589 15.9105 73.9634H39.0895C41.6044 73.9594 44.0743 73.294 46.2526 72.0338C48.4309 70.7736 50.2413 68.9626 51.5031 66.7816L63.0851 46.6668C64.3397 44.4813 65 42.004 65 39.4825C65 36.961 64.3397 34.4837 63.0851 32.2983L51.5031 12.1835C50.24 10.0003 48.4273 8.1879 46.2462 6.92756C44.0651 5.66721 41.5922 5.00312 39.0747 5.00171H15.9105C13.3957 5.0062 10.926 5.67173 8.74778 6.9319C6.5696 8.19206 4.75911 10.0028 3.49695 12.1835L-8.08513 32.2983C-9.3397 34.4837 -10 36.961 -10 39.4825C-10 42.004 -9.3397 44.4813 -8.08513 46.6668Z" fill="white"/>
</g>
<path d="M48.4688 27H31.5938C30.1963 27 29.0625 28.1338 29.0625 29.5312V32.0625H26.5312C25.1338 32.0625 24 33.1963 24 34.5938V51.4688C24 52.8662 25.1338 54 26.5312 54H43.4062C44.8037 54 45.9375 52.8662 45.9375 51.4688V48.9375H48.4688C49.8662 48.9375 51 47.8037 51 46.4062V29.5312C51 28.1338 49.8662 27 48.4688 27ZM43.4062 51.4688H26.5312V40.5H43.4062V51.4688ZM48.4688 46.4062H45.9375V34.5938C45.9375 33.1963 44.8037 32.0625 43.4062 32.0625H31.5938V29.5312H48.4688V46.4062Z" fill="#A8FFE8"/>
</svg>
